packages/icons/src/components/Icon/assets/default-solid/lock.svg

<svg width="20" height="20" viewBox="0 0 20 20" fill="none" xmlns="http://www.w3.org/2000/svg">
<path fill-rule="evenodd" clip-rule="evenodd" d="M10.0023 2C7.79311 2 6.00225 3.79086 6.00225 6V9.11111H5.55781C4.57597 9.11111 3.78003 9.90705 3.78003 10.8889V16.2222C3.78003 17.2041 4.57597 18 5.55781 18H14.4467C15.4285 18 16.2245 17.2041 16.2245 16.2222V10.8889C16.2245 9.90705 15.4285 9.11111 14.4467 9.11111H14.0023V6C14.0023 3.79086 12.2114 2 10.0023 2ZM12.6689 9.11111V6C12.6689 4.52724 11.475 3.33333 10.0023 3.33333C8.52949 3.33333 7.33558 4.52724 7.33558 6V9.11111H12.6689Z" fill="#727683"/>
</svg>

<svg xmlns="http://www.w3.org/2000/svg" width="20" height="20" fill="none" viewBox="0 0 20 20">
    <path fill="#727683" fill-rule="evenodd" d="M10.002 2a4 4 0 0 0-4 4v3.111h-.444c-.982 0-1.778.796-1.778 1.778v5.333c0 .982.796 1.778 1.778 1.778h8.889c.982 0 1.777-.796 1.777-1.778V10.89c0-.982-.796-1.778-1.777-1.778h-.445V6a4 4 0 0 0-4-4m2.667 7.111V6a2.667 2.667 0 1 0-5.333 0v3.111z" clip-rule="evenodd"/>
</svg>
